resources/icons/16px/fuel.svg

<svg width="16" height="16" viewBox="0 0 16 16" fill="none" xmlns="http://www.w3.org/2000/svg">
<path fill-rule="evenodd" clip-rule="evenodd" d="M1.94878 1H0V3H2C2.31072 3 2.5992 3.1612 2.76205 3.42583L4.7268 6.61856L3.3753 7.69976C3.13809 7.88953 3 8.17684 3 8.48063V13.9C3 14.5075 3.44772 15 4 15H15C15.5523 15 16 14.5075 16 13.9V2C16 2 16 1 15 1H9C8.5 1 8 1.5 8 2V4L6.38804 5.28957L4.45509 2.35124C3.90024 1.5078 2.95836 1 1.94878 1ZM14 3V4H10V3H14Z" fill="black"/>
</svg>

<svg xmlns="http://www.w3.org/2000/svg" viewBox="0 0 16 16">
  <path d="M1.949 1H0v2h2c.31 0 .6.161.762.426l1.965 3.193-1.352 1.08A1 1 0 0 0 3 8.482V13.9c0 .607.448 1.1 1 1.1h11c.552 0 1-.492 1-1.1V2s0-1-1-1H9c-.5 0-1 .5-1 1v2L6.388 5.29 4.455 2.35A3 3 0 0 0 1.95 1M14 3v1h-4V3z"/>
</svg>
